images/3235353.svg

<?xml version="1.0" encoding="UTF-8"?>
<svg xmlns="http://www.w3.org/2000/svg" xmlns:xlink="http://www.w3.org/1999/xlink" width="300pt" height="300pt" viewBox="0 0 300 300" version="1.1">
<defs>
<g>
<symbol overflow="visible" id="glyph0-0">
<path style="stroke:none;" d="M 0.546875 1.9375 L 0.546875 -7.75 L 6.046875 -7.75 L 6.046875 1.9375 Z M 1.171875 1.328125 L 5.4375 1.328125 L 5.4375 -7.140625 L 1.171875 -7.140625 Z M 1.171875 1.328125 "/>
</symbol>
<symbol overflow="visible" id="glyph0-1">
<path style="stroke:none;" d="M 1.078125 -8.015625 L 2.546875 -8.015625 L 6.09375 -1.3125 L 6.09375 -8.015625 L 7.15625 -8.015625 L 7.15625 0 L 5.6875 0 L 2.125 -6.703125 L 2.125 0 L 1.078125 0 Z M 1.078125 -8.015625 "/>
</symbol>
<symbol overflow="visible" id="glyph0-2">
<path style="stroke:none;" d="M 1.078125 -8.015625 L 2.171875 -8.015625 L 2.171875 -4.734375 L 6.109375 -4.734375 L 6.109375 -8.015625 L 7.1875 -8.015625 L 7.1875 0 L 6.109375 0 L 6.109375 -3.8125 L 2.171875 -3.8125 L 2.171875 0 L 1.078125 0 Z M 1.078125 -8.015625 "/>
</symbol>
</g>
</defs>
<g id="surface53937">
<rect x="0" y="0" width="300" height="300" style="fill:rgb(100%,100%,100%);fill-opacity:1;stroke:none;"/>
<path style="fill:none;stroke-width:1.2;stroke-linecap:butt;stroke-linejoin:miter;stroke:rgb(0%,0%,0%);stroke-opacity:1;stroke-miterlimit:10;" d="M 44.5625 112.367188 L 48.824219 125.125 "/>
<path style="fill:none;stroke-width:1.2;stroke-linecap:butt;stroke-linejoin:miter;stroke:rgb(0%,0%,100%);stroke-opacity:1;stroke-miterlimit:10;" d="M 48.824219 125.125 L 53.085938 137.882812 "/>
<path style="fill:none;stroke-width:1.2;stroke-linecap:butt;stroke-linejoin:miter;stroke:rgb(0%,0%,100%);stroke-opacity:1;stroke-miterlimit:10;" d="M 53.085938 137.882812 L 44.167969 147.953125 "/>
<path style="fill:none;stroke-width:1.2;stroke-linecap:butt;stroke-linejoin:miter;stroke:rgb(0%,0%,0%);stroke-opacity:1;stroke-miterlimit:10;" d="M 44.167969 147.953125 L 35.25 158.023438 "/>
<path style="fill:none;stroke-width:1.2;stroke-linecap:butt;stroke-linejoin:miter;stroke:rgb(0%,0%,100%);stroke-opacity:1;stroke-miterlimit:10;" d="M 53.085938 137.882812 L 66.265625 140.570312 "/>
<path style="fill:none;stroke-width:1.2;stroke-linecap:butt;stroke-linejoin:miter;stroke:rgb(0%,0%,0%);stroke-opacity:1;stroke-miterlimit:10;" d="M 66.265625 140.570312 L 79.445312 143.257812 "/>
<path style=" stroke:none;fill-rule:nonzero;fill:rgb(100%,100%,100%);fill-opacity:1;" d="M 49.085938 131.382812 L 57.085938 131.382812 L 57.085938 144.382812 L 49.085938 144.382812 Z M 49.085938 131.382812 "/>
<g style="fill:rgb(0%,0%,100%);fill-opacity:1;">
  <use xlink:href="#glyph0-1" x="49.085938" y="141.28418"/>
</g>
<path style="fill:none;stroke-width:1.2;stroke-linecap:butt;stroke-linejoin:miter;stroke:rgb(0%,0%,0%);stroke-opacity:1;stroke-miterlimit:10;" d="M 79.445312 143.257812 L 97.28125 123.121094 "/>
<path style="fill:none;stroke-width:1.2;stroke-linecap:butt;stroke-linejoin:miter;stroke:rgb(0%,0%,0%);stroke-opacity:1;stroke-miterlimit:10;" d="M 85.96875 145.441406 L 100.234375 129.328125 "/>
<path style="fill:none;stroke-width:1.2;stroke-linecap:butt;stroke-linejoin:miter;stroke:rgb(0%,0%,0%);stroke-opacity:1;stroke-miterlimit:10;" d="M 87.96875 168.777344 L 79.445312 143.257812 "/>
<path style="fill:none;stroke-width:1.2;stroke-linecap:butt;stroke-linejoin:miter;stroke:rgb(0%,0%,0%);stroke-opacity:1;stroke-miterlimit:10;" d="M 97.28125 123.121094 L 123.640625 128.496094 "/>
<path style="fill:none;stroke-width:1.2;stroke-linecap:butt;stroke-linejoin:miter;stroke:rgb(0%,0%,0%);stroke-opacity:1;stroke-miterlimit:10;" d="M 123.640625 128.496094 L 132.164062 154.011719 "/>
<path style="fill:none;stroke-width:1.2;stroke-linecap:butt;stroke-linejoin:miter;stroke:rgb(0%,0%,0%);stroke-opacity:1;stroke-miterlimit:10;" d="M 118.488281 133.054688 L 125.308594 153.464844 "/>
<path style="fill:none;stroke-width:1.2;stroke-linecap:butt;stroke-linejoin:miter;stroke:rgb(0%,0%,0%);stroke-opacity:1;stroke-miterlimit:10;" d="M 132.164062 154.011719 L 114.328125 174.152344 "/>
<path style="fill:none;stroke-width:1.2;stroke-linecap:butt;stroke-linejoin:miter;stroke:rgb(0%,0%,0%);stroke-opacity:1;stroke-miterlimit:10;" d="M 132.164062 154.011719 L 158.523438 159.386719 "/>
<path style="fill:none;stroke-width:1.2;stroke-linecap:butt;stroke-linejoin:miter;stroke:rgb(0%,0%,0%);stroke-opacity:1;stroke-miterlimit:10;" d="M 114.328125 174.152344 L 87.96875 168.777344 "/>
<path style="fill:none;stroke-width:1.2;stroke-linecap:butt;stroke-linejoin:miter;stroke:rgb(0%,0%,0%);stroke-opacity:1;stroke-miterlimit:10;" d="M 112.957031 167.410156 L 91.871094 163.109375 "/>
<path style="fill:none;stroke-width:1.2;stroke-linecap:butt;stroke-linejoin:miter;stroke:rgb(0%,0%,0%);stroke-opacity:1;stroke-miterlimit:10;" d="M 158.523438 159.386719 L 162.785156 172.144531 "/>
<path style="fill:none;stroke-width:1.2;stroke-linecap:butt;stroke-linejoin:miter;stroke:rgb(0%,0%,100%);stroke-opacity:1;stroke-miterlimit:10;" d="M 162.785156 172.144531 L 167.046875 184.902344 "/>
<path style="fill:none;stroke-width:1.2;stroke-linecap:butt;stroke-linejoin:miter;stroke:rgb(0%,0%,0%);stroke-opacity:1;stroke-miterlimit:10;" d="M 165.378906 159.933594 L 168.789062 170.140625 "/>
<path style="fill:none;stroke-width:1.2;stroke-linecap:butt;stroke-linejoin:miter;stroke:rgb(0%,0%,100%);stroke-opacity:1;stroke-miterlimit:10;" d="M 168.789062 170.140625 L 172.199219 180.347656 "/>
<path style="fill:none;stroke-width:1.2;stroke-linecap:butt;stroke-linejoin:miter;stroke:rgb(0%,0%,100%);stroke-opacity:1;stroke-miterlimit:10;" d="M 176.359375 139.246094 L 167.441406 149.316406 "/>
<path style="fill:none;stroke-width:1.2;stroke-linecap:butt;stroke-linejoin:miter;stroke:rgb(0%,0%,0%);stroke-opacity:1;stroke-miterlimit:10;" d="M 167.441406 149.316406 L 158.523438 159.386719 "/>
<path style="fill:none;stroke-width:1.2;stroke-linecap:butt;stroke-linejoin:miter;stroke:rgb(0%,0%,100%);stroke-opacity:1;stroke-miterlimit:10;" d="M 167.046875 184.902344 L 180.226562 187.59375 "/>
<path style="fill:none;stroke-width:1.2;stroke-linecap:butt;stroke-linejoin:miter;stroke:rgb(0%,0%,0%);stroke-opacity:1;stroke-miterlimit:10;" d="M 180.226562 187.59375 L 193.40625 190.28125 "/>
<path style=" stroke:none;fill-rule:nonzero;fill:rgb(100%,100%,100%);fill-opacity:1;" d="M 163.046875 178.402344 L 171.046875 178.402344 L 171.046875 191.402344 L 163.046875 191.402344 Z M 163.046875 178.402344 "/>
<g style="fill:rgb(0%,0%,100%);fill-opacity:1;">
  <use xlink:href="#glyph0-1" x="163.046875" y="188.303711"/>
</g>
<path style="fill:none;stroke-width:1.2;stroke-linecap:butt;stroke-linejoin:miter;stroke:rgb(0%,0%,0%);stroke-opacity:1;stroke-miterlimit:10;" d="M 193.40625 190.28125 L 201.929688 215.796875 "/>
<path style="fill:none;stroke-width:1.2;stroke-linecap:butt;stroke-linejoin:miter;stroke:rgb(0%,0%,0%);stroke-opacity:1;stroke-miterlimit:10;" d="M 200.261719 190.824219 L 207.082031 211.238281 "/>
<path style="fill:none;stroke-width:1.2;stroke-linecap:butt;stroke-linejoin:miter;stroke:rgb(0%,0%,0%);stroke-opacity:1;stroke-miterlimit:10;" d="M 211.242188 170.140625 L 193.40625 190.28125 "/>
<path style="fill:none;stroke-width:1.2;stroke-linecap:butt;stroke-linejoin:miter;stroke:rgb(0%,0%,0%);stroke-opacity:1;stroke-miterlimit:10;" d="M 201.929688 215.796875 L 228.289062 221.171875 "/>
<path style="fill:none;stroke-width:1.2;stroke-linecap:butt;stroke-linejoin:miter;stroke:rgb(0%,0%,0%);stroke-opacity:1;stroke-miterlimit:10;" d="M 228.289062 221.171875 L 246.125 201.03125 "/>
<path style="fill:none;stroke-width:1.2;stroke-linecap:butt;stroke-linejoin:miter;stroke:rgb(0%,0%,0%);stroke-opacity:1;stroke-miterlimit:10;" d="M 225.335938 214.960938 L 239.605469 198.851562 "/>
<path style="fill:none;stroke-width:1.2;stroke-linecap:butt;stroke-linejoin:miter;stroke:rgb(0%,0%,0%);stroke-opacity:1;stroke-miterlimit:10;" d="M 246.125 201.03125 L 237.601562 175.515625 "/>
<path style="fill:none;stroke-width:1.2;stroke-linecap:butt;stroke-linejoin:miter;stroke:rgb(0%,0%,0%);stroke-opacity:1;stroke-miterlimit:10;" d="M 237.601562 175.515625 L 211.242188 170.140625 "/>
<path style="fill:none;stroke-width:1.2;stroke-linecap:butt;stroke-linejoin:miter;stroke:rgb(0%,0%,0%);stroke-opacity:1;stroke-miterlimit:10;" d="M 233.703125 181.179688 L 212.613281 176.878906 "/>
<path style="fill:none;stroke-width:1.2;stroke-linecap:butt;stroke-linejoin:miter;stroke:rgb(0%,0%,0%);stroke-opacity:1;stroke-miterlimit:10;" d="M 211.242188 170.140625 L 202.71875 144.625 "/>
<path style="fill:none;stroke-width:1.2;stroke-linecap:butt;stroke-linejoin:miter;stroke:rgb(0%,0%,0%);stroke-opacity:1;stroke-miterlimit:10;" d="M 202.71875 144.625 L 189.539062 141.9375 "/>
<path style="fill:none;stroke-width:1.2;stroke-linecap:butt;stroke-linejoin:miter;stroke:rgb(0%,0%,100%);stroke-opacity:1;stroke-miterlimit:10;" d="M 189.539062 141.9375 L 176.359375 139.246094 "/>
<path style="fill:none;stroke-width:1.2;stroke-linecap:butt;stroke-linejoin:miter;stroke:rgb(0%,0%,0%);stroke-opacity:1;stroke-miterlimit:10;" d="M 198.816406 150.289062 L 188.273438 148.136719 "/>
<path style="fill:none;stroke-width:1.2;stroke-linecap:butt;stroke-linejoin:miter;stroke:rgb(0%,0%,100%);stroke-opacity:1;stroke-miterlimit:10;" d="M 188.273438 148.136719 L 177.730469 145.988281 "/>
<path style="fill:none;stroke-width:1.2;stroke-linecap:butt;stroke-linejoin:miter;stroke:rgb(0%,0%,0%);stroke-opacity:1;stroke-miterlimit:10;" d="M 202.71875 144.625 L 211.636719 134.554688 "/>
<path style="fill:none;stroke-width:1.2;stroke-linecap:butt;stroke-linejoin:miter;stroke:rgb(0%,0%,100%);stroke-opacity:1;stroke-miterlimit:10;" d="M 211.636719 134.554688 L 220.554688 124.484375 "/>
<path style=" stroke:none;fill-rule:nonzero;fill:rgb(100%,100%,100%);fill-opacity:1;" d="M 172.359375 132.746094 L 180.359375 132.746094 L 180.359375 145.746094 L 172.359375 145.746094 Z M 172.359375 132.746094 "/>
<g style="fill:rgb(0%,0%,100%);fill-opacity:1;">
  <use xlink:href="#glyph0-1" x="172.359375" y="142.647461"/>
</g>
<path style="fill:none;stroke-width:1.2;stroke-linecap:butt;stroke-linejoin:miter;stroke:rgb(0%,0%,100%);stroke-opacity:1;stroke-miterlimit:10;" d="M 220.554688 124.484375 L 233.734375 127.171875 "/>
<path style="fill:none;stroke-width:1.2;stroke-linecap:butt;stroke-linejoin:miter;stroke:rgb(0%,0%,0%);stroke-opacity:1;stroke-miterlimit:10;" d="M 233.734375 127.171875 L 246.914062 129.859375 "/>
<path style="fill:none;stroke-width:1.2;stroke-linecap:butt;stroke-linejoin:miter;stroke:rgb(0%,0%,0%);stroke-opacity:1;stroke-miterlimit:10;" d="M 212.03125 98.96875 L 216.292969 111.726562 "/>
<path style="fill:none;stroke-width:1.2;stroke-linecap:butt;stroke-linejoin:miter;stroke:rgb(0%,0%,100%);stroke-opacity:1;stroke-miterlimit:10;" d="M 216.292969 111.726562 L 220.554688 124.484375 "/>
<path style=" stroke:none;fill-rule:nonzero;fill:rgb(100%,100%,100%);fill-opacity:1;" d="M 216.554688 117.984375 L 224.554688 117.984375 L 224.554688 130.984375 L 216.554688 130.984375 Z M 216.554688 117.984375 "/>
<g style="fill:rgb(0%,0%,100%);fill-opacity:1;">
  <use xlink:href="#glyph0-1" x="216.554688" y="127.885742"/>
</g>
<path style="fill:none;stroke-width:1.2;stroke-linecap:butt;stroke-linejoin:miter;stroke:rgb(0%,0%,0%);stroke-opacity:1;stroke-miterlimit:10;" d="M 246.914062 129.859375 L 264.75 109.71875 "/>
<path style="fill:none;stroke-width:1.2;stroke-linecap:butt;stroke-linejoin:miter;stroke:rgb(0%,0%,0%);stroke-opacity:1;stroke-miterlimit:10;" d="M 264.75 109.71875 L 260.488281 96.960938 "/>
<path style="fill:none;stroke-width:1.2;stroke-linecap:butt;stroke-linejoin:miter;stroke:rgb(0%,0%,100%);stroke-opacity:1;stroke-miterlimit:10;" d="M 260.488281 96.960938 L 256.226562 84.203125 "/>
<path style="fill:none;stroke-width:1.2;stroke-linecap:butt;stroke-linejoin:miter;stroke:rgb(0%,0%,100%);stroke-opacity:1;stroke-miterlimit:10;" d="M 256.226562 84.203125 L 243.046875 81.515625 "/>
<path style="fill:none;stroke-width:1.2;stroke-linecap:butt;stroke-linejoin:miter;stroke:rgb(0%,0%,0%);stroke-opacity:1;stroke-miterlimit:10;" d="M 243.046875 81.515625 L 229.867188 78.828125 "/>
<path style=" stroke:none;fill-rule:nonzero;fill:rgb(100%,100%,100%);fill-opacity:1;" d="M 248.226562 77.703125 L 265.226562 77.703125 L 265.226562 90.703125 L 248.226562 90.703125 Z M 248.226562 77.703125 "/>
<g style="fill:rgb(0%,0%,100%);fill-opacity:1;">
  <use xlink:href="#glyph0-1" x="248.226562" y="87.604492"/>
  <use xlink:href="#glyph0-2" x="256.209961" y="87.604492"/>
</g>
<path style="fill:none;stroke-width:1.2;stroke-linecap:butt;stroke-linejoin:miter;stroke:rgb(0%,0%,0%);stroke-opacity:1;stroke-miterlimit:10;" d="M 229.867188 78.828125 L 212.03125 98.96875 "/>
</g>
</svg>

<svg xmlns="http://www.w3.org/2000/svg" xmlns:xlink="http://www.w3.org/1999/xlink" width="300pt" height="300pt" viewBox="0 0 300 300"><defs><symbol overflow="visible"><path d="M.547 1.938V-7.75h5.5v9.688zm.625-.61h4.266v-8.47H1.171zm0 0"/></symbol><symbol overflow="visible" id="a"><path d="M1.078-8.016h1.47l3.546 6.704v-6.704h1.062V0H5.688L2.124-6.703V0H1.078zm0 0"/></symbol><symbol overflow="visible" id="b"><path d="M1.078-8.016h1.094v3.282H6.11v-3.282h1.077V0H6.11v-3.813H2.17V0H1.078zm0 0"/></symbol></defs><g><path fill="#fff" d="M0 0h300v300H0z"/><path d="M44.563 112.367l4.26 12.758" stroke-width="1.2" stroke="#000" stroke-miterlimit="10" fill="none"/><path d="M48.824 125.125l4.262 12.758M53.086 137.883l-8.918 10.07" stroke-width="1.2" stroke="#00f" stroke-miterlimit="10" fill="none"/><path d="M44.168 147.953l-8.918 10.07" stroke-width="1.2" stroke="#000" stroke-miterlimit="10" fill="none"/><path d="M53.086 137.883l13.18 2.687" stroke-width="1.2" stroke="#00f" stroke-miterlimit="10" fill="none"/><path d="M66.266 140.57l13.18 2.688" stroke-width="1.2" stroke="#000" stroke-miterlimit="10" fill="none"/><path d="M49.086 131.383h8v13h-8zm0 0" fill="#fff"/><use xlink:href="#a" x="49.086" y="141.284" fill="#00f"/><path d="M79.445 143.258L97.28 123.12M85.97 145.44l14.264-16.112M87.97 168.777l-8.525-25.52M97.28 123.12l26.36 5.376M123.64 128.496l8.524 25.516M118.488 133.055l6.82 20.41M132.164 154.012l-17.836 20.14M132.164 154.012l26.36 5.375M114.328 174.152l-26.36-5.375M112.957 167.41l-21.086-4.3M158.523 159.387l4.262 12.758" stroke-width="1.2" stroke="#000" stroke-miterlimit="10" fill="none"/><path d="M162.785 172.145l4.262 12.757" stroke-width="1.2" stroke="#00f" stroke-miterlimit="10" fill="none"/><path d="M165.38 159.934l3.41 10.207" stroke-width="1.2" stroke="#000" stroke-miterlimit="10" fill="none"/><path d="M168.79 170.14l3.41 10.208M176.36 139.246l-8.92 10.07" stroke-width="1.2" stroke="#00f" stroke-miterlimit="10" fill="none"/><path d="M167.44 149.316l-8.917 10.07" stroke-width="1.2" stroke="#000" stroke-miterlimit="10" fill="none"/><path d="M167.047 184.902l13.18 2.692" stroke-width="1.2" stroke="#00f" stroke-miterlimit="10" fill="none"/><path d="M180.227 187.594l13.18 2.687" stroke-width="1.2" stroke="#000" stroke-miterlimit="10" fill="none"/><path d="M163.047 178.402h8v13h-8zm0 0" fill="#fff"/><use xlink:href="#a" x="163.047" y="188.304" fill="#00f"/><path d="M193.406 190.28l8.524 25.517M200.262 190.824l6.82 20.414M211.242 170.14l-17.836 20.14M201.93 215.797l26.36 5.375M228.29 221.172l17.835-20.14M225.336 214.96l14.27-16.108M246.125 201.03l-8.523-25.514M237.602 175.516l-26.36-5.375M233.703 181.18l-21.09-4.3M211.242 170.14l-8.523-25.515M202.72 144.625l-13.18-2.688" stroke-width="1.2" stroke="#000" stroke-miterlimit="10" fill="none"/><path d="M189.54 141.938l-13.18-2.692" stroke-width="1.2" stroke="#00f" stroke-miterlimit="10" fill="none"/><path d="M198.816 150.29l-10.543-2.153" stroke-width="1.2" stroke="#000" stroke-miterlimit="10" fill="none"/><path d="M188.273 148.137l-10.543-2.15" stroke-width="1.2" stroke="#00f" stroke-miterlimit="10" fill="none"/><path d="M202.72 144.625l8.917-10.07" stroke-width="1.2" stroke="#000" stroke-miterlimit="10" fill="none"/><path d="M211.637 134.555l8.918-10.07" stroke-width="1.2" stroke="#00f" stroke-miterlimit="10" fill="none"/><path d="M172.36 132.746h8v13h-8zm0 0" fill="#fff"/><use xlink:href="#a" x="172.359" y="142.647" fill="#00f"/><path d="M220.555 124.484l13.18 2.688" stroke-width="1.2" stroke="#00f" stroke-miterlimit="10" fill="none"/><path d="M233.734 127.172l13.18 2.687M212.03 98.97l4.263 12.757" stroke-width="1.2" stroke="#000" stroke-miterlimit="10" fill="none"/><path d="M216.293 111.727l4.262 12.757" stroke-width="1.2" stroke="#00f" stroke-miterlimit="10" fill="none"/><path d="M216.555 117.984h8v13h-8zm0 0" fill="#fff"/><use xlink:href="#a" x="216.555" y="127.886" fill="#00f"/><path d="M246.914 129.86l17.836-20.14M264.75 109.72l-4.262-12.76" stroke-width="1.2" stroke="#000" stroke-miterlimit="10" fill="none"/><path d="M260.488 96.96l-4.26-12.757M256.227 84.203l-13.18-2.687" stroke-width="1.2" stroke="#00f" stroke-miterlimit="10" fill="none"/><path d="M243.047 81.516l-13.18-2.688" stroke-width="1.2" stroke="#000" stroke-miterlimit="10" fill="none"/><path d="M248.227 77.703h17v13h-17zm0 0" fill="#fff"/><g fill="#00f"><use xlink:href="#a" x="248.227" y="87.604"/><use xlink:href="#b" x="256.21" y="87.604"/></g><path d="M229.867 78.828l-17.836 20.14" stroke-width="1.2" stroke="#000" stroke-miterlimit="10" fill="none"/></g></svg>
